src/assets/outline/VideoTime.svg

<svg width="24" height="24" viewBox="0 0 24 24"  xmlns="http://www.w3.org/2000/svg">
<path d="M15 22.75H9C3.57 22.75 1.25 20.43 1.25 15V9C1.25 3.57 3.57 1.25 9 1.25H15C20.43 1.25 22.75 3.57 22.75 9V15C22.75 15.24 22.75 15.49 22.73 15.72C22.7 16.02 22.49 16.28 22.2 16.37C21.91 16.46 21.59 16.36 21.4 16.12C20.69 15.25 19.64 14.75 18.5 14.75C17.65 14.75 16.82 15.04 16.16 15.57C15.26 16.28 14.75 17.34 14.75 18.5C14.75 19.63 15.25 20.69 16.12 21.4C16.36 21.59 16.45 21.91 16.37 22.2C16.28 22.49 16.03 22.7 15.72 22.73C15.49 22.75 15.24 22.75 15 22.75ZM9 2.75C4.39 2.75 2.75 4.39 2.75 9V15C2.75 19.61 4.39 21.25 9 21.25H14.02C13.52 20.44 13.25 19.49 13.25 18.5C13.25 16.88 13.97 15.39 15.23 14.4C16.91 13.04 19.46 12.92 21.25 14.02V9C21.25 4.39 19.61 2.75 15 2.75H9Z" />
<path d="M21.48 7.85986H2.52002C2.11002 7.85986 1.77002 7.51986 1.77002 7.10986C1.77002 6.69986 2.11002 6.35986 2.52002 6.35986H21.48C21.89 6.35986 22.23 6.69986 22.23 7.10986C22.23 7.51986 21.9 7.85986 21.48 7.85986Z" />
<path d="M8.52002 7.71985C8.11002 7.71985 7.77002 7.37985 7.77002 6.96985V2.10986C7.77002 1.69986 8.11002 1.35986 8.52002 1.35986C8.93002 1.35986 9.27002 1.69986 9.27002 2.10986V6.96985C9.27002 7.37985 8.93002 7.71985 8.52002 7.71985Z" />
<path d="M15.48 7.2699C15.07 7.2699 14.73 6.9299 14.73 6.5199V2.10986C14.73 1.69986 15.07 1.35986 15.48 1.35986C15.89 1.35986 16.23 1.69986 16.23 2.10986V6.5199C16.23 6.9399 15.9 7.2699 15.48 7.2699Z" />
<path d="M18.5 23.75C17.28 23.75 16.1 23.33 15.17 22.56C13.95 21.57 13.25 20.09 13.25 18.5C13.25 16.88 13.97 15.39 15.23 14.4C16.15 13.66 17.31 13.25 18.5 13.25C20.09 13.25 21.57 13.95 22.56 15.18C23.32 16.1 23.75 17.28 23.75 18.5C23.75 19.99 23.1 21.43 21.97 22.44C20.99 23.29 19.76 23.75 18.5 23.75ZM18.5 14.75C17.65 14.75 16.82 15.04 16.16 15.57C15.26 16.28 14.75 17.34 14.75 18.5C14.75 19.63 15.25 20.69 16.12 21.4C17.48 22.53 19.59 22.52 20.98 21.31C21.78 20.59 22.25 19.56 22.25 18.5C22.25 17.63 21.95 16.79 21.4 16.13C20.69 15.25 19.63 14.75 18.5 14.75Z" />
<path d="M17.3798 20.3799C17.1298 20.3799 16.8798 20.2499 16.7398 20.0199C16.5298 19.6599 16.6398 19.1999 16.9998 18.9899L18.0398 18.3699V17.1099C18.0398 16.6999 18.3798 16.3599 18.7898 16.3599C19.1998 16.3599 19.5398 16.6999 19.5398 17.1099V18.7999C19.5398 19.0599 19.3998 19.3099 19.1798 19.4399L17.7698 20.2799C17.6398 20.3399 17.5098 20.3799 17.3798 20.3799Z" />
</svg>

<?xml version="1.0" encoding="UTF-8"?>
<svg width="24" height="24" viewBox="0 0 24 24" xmlns="http://www.w3.org/2000/svg">
 <path d="m15 22.75h-6c-5.43 0-7.75-2.32-7.75-7.75v-6c0-5.43 2.32-7.75 7.75-7.75h6c5.43 0 7.75 2.32 7.75 7.75v6c0 0.24 0 0.49-0.02 0.72-0.03 0.3-0.24 0.56-0.53 0.65s-0.61-0.01-0.8-0.25c-0.71-0.87-1.76-1.37-2.9-1.37-0.85 0-1.68 0.29-2.34 0.82-0.9 0.71-1.41 1.77-1.41 2.93 0 1.13 0.5 2.19 1.37 2.9 0.24 0.19 0.33 0.51 0.25 0.8-0.09 0.29-0.34 0.5-0.65 0.53-0.23 0.02-0.48 0.02-0.72 0.02zm-6-20c-4.61 0-6.25 1.64-6.25 6.25v6c0 4.61 1.64 6.25 6.25 6.25h5.02c-0.5-0.81-0.77-1.76-0.77-2.75 0-1.62 0.72-3.11 1.98-4.1 1.68-1.36 4.23-1.48 6.02-0.38v-5.02c0-4.61-1.64-6.25-6.25-6.25h-6z"/>
 <path d="m21.48 7.8599h-18.96c-0.41 0-0.75-0.34-0.75-0.75s0.34-0.75 0.75-0.75h18.96c0.41 0 0.75 0.34 0.75 0.75s-0.33 0.75-0.75 0.75z"/>
 <path d="m8.52 7.7198c-0.41 0-0.75-0.34-0.75-0.75v-4.86c0-0.41 0.34-0.75 0.75-0.75s0.75 0.34 0.75 0.75v4.86c0 0.41-0.34 0.75-0.75 0.75z"/>
 <path d="m15.48 7.2699c-0.41 0-0.75-0.34-0.75-0.75v-4.41c0-0.41 0.34-0.75 0.75-0.75s0.75 0.34 0.75 0.75v4.41c0 0.42-0.33 0.75-0.75 0.75z"/>
 <path d="m18.5 23.75c-1.22 0-2.4-0.42-3.33-1.19-1.22-0.99-1.92-2.47-1.92-4.06 0-1.62 0.72-3.11 1.98-4.1 0.92-0.74 2.08-1.15 3.27-1.15 1.59 0 3.07 0.7 4.06 1.93 0.76 0.92 1.19 2.1 1.19 3.32 0 1.49-0.65 2.93-1.78 3.94-0.98 0.85-2.21 1.31-3.47 1.31zm0-9c-0.85 0-1.68 0.29-2.34 0.82-0.9 0.71-1.41 1.77-1.41 2.93 0 1.13 0.5 2.19 1.37 2.9 1.36 1.13 3.47 1.12 4.86-0.09 0.8-0.72 1.27-1.75 1.27-2.81 0-0.87-0.3-1.71-0.85-2.37-0.71-0.88-1.77-1.38-2.9-1.38z"/>
 <path d="m17.38 20.38c-0.25 0-0.5-0.13-0.64-0.36-0.21-0.36-0.1-0.82 0.26-1.03l1.04-0.62v-1.26c0-0.41 0.34-0.75 0.75-0.75s0.75 0.34 0.75 0.75v1.69c0 0.26-0.14 0.51-0.36 0.64l-1.41 0.84c-0.13 0.06-0.26 0.1-0.39 0.1z"/>
</svg>
